X: 36457
T: Second Victory, The
R: jig
M: 6/8
K: Adorian
|:c2A BAG|ABA GED|EAA GBd|ege age|
d^cd e=cA|B2A GED|EAB ced|cAG A2B:|
|:cBc efg|~G3 (3EFGE|cBc d^cd|e2d ged|
eaf g2e|(3efge dBG|EAB ced|cAG A2B:|
|:~a2e cBA|EAB cBA|gfg dBG|(3BcdG Bcd|
eaf g2e|(3efge dBG|EAB ced|cAG A3:|

